svgs/light/briefcase-clock.svg

<svg xmlns="http://www.w3.org/2000/svg" viewBox="0 0 640 512"><!-- Font Awesome Pro 6.0.0-alpha2 by @fontawesome - https://fontawesome.com License - https://fontawesome.com/license (Commercial License) --><path d="M496 224C416.375 224 352 288.375 352 368S416.375 512 496 512S640 447.625 640 368S575.625 224 496 224ZM496 480C434.25 480 384 429.75 384 368S434.25 256 496 256S608 306.25 608 368S557.75 480 496 480ZM544 352H512V304C512 295.164 504.836 288 496 288S480 295.164 480 304V368C480 376.836 487.164 384 496 384H544C552.836 384 560 376.836 560 368S552.836 352 544 352ZM336 448H64C46.326 448 32 433.674 32 416V288H176V352C176 360.836 183.164 368 192 368H304C312.836 368 320 360.836 320 352S312.836 336 304 336H208V288H336C344.836 288 352 280.836 352 272S344.836 256 336 256H32V160C32 142.326 46.326 128 64 128H448C465.674 128 480 142.326 480 160V176C480 184.836 487.164 192 496 192S512 184.836 512 176V160C512 124.654 483.346 96 448 96H384V48C384 21.49 362.51 0 336 0H176C149.49 0 128 21.49 128 48V96H64C28.654 96 0 124.654 0 160V416C0 451.346 28.654 480 64 480H336C344.836 480 352 472.836 352 464S344.836 448 336 448ZM160 48C160 39.172 167.172 32 176 32H336C344.828 32 352 39.172 352 48V96H160V48Z"/></svg>

<svg xmlns="http://www.w3.org/2000/svg" viewBox="0 0 640 512"><!--! Font Awesome Pro 6.0.0-alpha3 by @fontawesome - https://fontawesome.com License - https://fontawesome.com/license (Commercial License) --><path d="M496 224C416.4 224 352 288.4 352 368s64.38 144 144 144s144-64.38 144-144S575.6 224 496 224zM496 480c-61.75 0-112-50.25-112-112S434.3 256 496 256S608 306.3 608 368S557.8 480 496 480zM544 352h-32V304C512 295.2 504.8 288 496 288S480 295.2 480 304v64c0 8.836 7.164 16 16 16H544c8.836 0 16-7.164 16-16S552.8 352 544 352zM336 448H64c-17.67 0-32-14.33-32-32V288h144v64c0 8.836 7.164 16 16 16h112c8.836 0 16-7.164 16-16s-7.164-16-16-16h-96V288h128C344.8 288 352 280.8 352 272S344.8 256 336 256H32V160c0-17.67 14.33-32 32-32h384c17.67 0 32 14.33 32 32v16C480 184.8 487.2 192 496 192S512 184.8 512 176V160c0-35.35-28.65-64-64-64h-64V48C384 21.49 362.5 0 336 0h-160C149.5 0 128 21.49 128 48V96H64C28.65 96 0 124.7 0 160v256c0 35.35 28.65 64 64 64h272c8.836 0 16-7.164 16-16S344.8 448 336 448zM160 48C160 39.17 167.2 32 176 32h160C344.8 32 352 39.17 352 48V96H160V48z"/></svg>
